X:26
T:The Shattered Sword
C:Corwin Zekley
L:1/8
M:3/4
K:Cmin
"Cm" D3 E Gd |"Gm" c2 B3 G |"Ab" F2 E3 F |"Gsus4/Bb" G2 D4 |$"Cm" D3 E Gd |"Gm" c2 B3 G | %6
"Fm" F2 E3 F |"G" G4 FG |$"Dm7b5" A3 B AG |"G7" F2 D3 E |"Cm7" F2 E3 D |"F7" C2 =A,4 |$ %12
"Ab" C3 D EG |"Bb" F2 G3 B |"Cm" c6- | c2 c2 d2 |$"Fm7" e3 d cd |"Gm7" fe d3 c |"Cm" g2 c3 g | %19
"D" ^f2 d4 |$"Ab7" f3 e de |"G7" fe d3 G |"Gm7" d2 c3 B |"C7" c2 c2 d2 |$"Fm7" e3 d cd | %25
"Gm" fe d3 c |"Cm" g2 f2 e2 |"Am7b5" d6 |$"Fm7" c4 BA |"Db7" G4 F2 |"G7sus4" G6- |"G7" G4 z2 |] %32

